icons/ibm.svg

<?xml version="1.0" encoding="UTF-8"?>
<svg width="512px" height="205px" viewBox="0 0 512 205" version="1.1" xmlns="http://www.w3.org/2000/svg" xmlns:xlink="http://www.w3.org/1999/xlink" preserveAspectRatio="xMidYMid">
    <g>
        <path d="M99.55552,190.060579 L99.55552,204.282819 L0,204.282819 L0,190.060579 L99.55552,190.060579 Z M255.1384,190.059939 C245.151671,199.241068 232.070596,204.31949 218.50496,204.282019 L218.50496,204.282019 L113.77792,204.141379 L113.77792,190.059939 Z M403.1664,190.059779 L398.2,204.282179 L393.2784,190.059779 L403.1664,190.059779 Z M355.55584,190.060579 L355.55584,204.282819 L284.44464,204.282819 L284.44464,190.060579 L355.55584,190.060579 Z M512,190.060579 L512,204.282819 L440.8888,204.282819 L440.8888,190.060579 L512,190.060579 Z M271.24672,162.908899 C270.026362,167.89787 268.099708,172.686973 265.52512,177.131139 L265.52512,177.131139 L113.77792,177.131139 L113.77792,162.908899 Z M412.6976,162.909379 L407.7056,177.131779 L388.7392,177.131779 L383.7472,162.909379 L412.6976,162.909379 Z M355.55584,162.908899 L355.55584,177.131139 L284.44464,177.131139 L284.44464,162.908899 L355.55584,162.908899 Z M512,162.908899 L512,177.131139 L440.8888,177.131139 L440.8888,162.908899 L512,162.908899 Z M99.55552,162.908899 L99.55552,177.131139 L0,177.131139 L0,162.908899 L99.55552,162.908899 Z M71.11104,135.757379 L71.11104,149.979779 L28.44432,149.979779 L28.44432,135.757379 L71.11104,135.757379 Z M184.88896,135.757379 L184.88896,149.979779 L142.22224,149.979779 L142.22224,135.757379 L184.88896,135.757379 Z M270.90576,135.757379 C272.166041,140.393192 272.805755,145.175711 272.80816,149.979779 L272.80816,149.979779 L224.96976,149.979779 L224.96976,135.757379 Z M422.2304,135.757379 L417.2368,149.979779 L379.208,149.979779 L374.2144,135.757379 L422.2304,135.757379 Z M355.55568,135.757379 L355.55568,149.979779 L312.88896,149.979779 L312.88896,135.757379 L355.55568,135.757379 Z M483.55552,135.757379 L483.55552,149.979779 L440.8888,149.979779 L440.8888,135.757379 L483.55552,135.757379 Z M71.11104,108.606019 L71.11104,122.828259 L28.44432,122.828259 L28.44432,108.606019 L71.11104,108.606019 Z M355.55568,108.606019 L355.55568,122.828259 L312.88896,122.828259 L312.88896,108.606019 L355.55568,108.606019 Z M483.55552,108.606019 L483.55552,122.828259 L440.8888,122.828259 L440.8888,108.606019 L483.55552,108.606019 Z M253.64576,108.605379 C258.382421,112.634795 262.394807,117.444874 265.50928,122.827459 L265.50928,122.827459 L142.22176,122.827459 L142.22176,108.605379 Z M431.7616,108.605379 L426.7696,122.827779 L369.6752,122.827779 L364.6832,108.605379 L431.7616,108.605379 Z M394.224,81.4549786 L398.2224,92.9509786 L402.2192,81.4549786 L483.5552,81.4549786 L483.5552,95.6773786 L440.8896,95.6773786 L440.8896,82.6085786 L436.3008,95.6773786 L360.144,95.6773786 L355.5552,82.6069786 L355.5552,95.6773786 L312.8896,95.6773786 L312.8896,81.4549786 L394.224,81.4549786 Z M142.22224,81.4543386 L265.51024,81.4551386 C262.395586,86.8377816 258.383042,91.6479099 253.64624,95.6773786 L253.64624,95.6773786 L142.22224,95.6773786 L142.22224,81.4543386 Z M71.11104,81.4543386 L71.11104,95.6765786 L28.44432,95.6765786 L28.44432,81.4543386 L71.11104,81.4543386 Z M71.11104,54.3029786 L71.11104,68.5252186 L28.44432,68.5252186 L28.44432,54.3029786 L71.11104,54.3029786 Z M184.88896,54.3029786 L184.88896,68.5252186 L142.22224,68.5252186 L142.22224,54.3029786 L184.88896,54.3029786 Z M272.80816,54.3031386 C272.805733,59.1071522 272.166019,63.8896155 270.90576,68.5253786 L270.90576,68.5253786 L224.96976,68.5253786 L224.96976,54.3031386 Z M384.7824,54.3029786 L389.728,68.5253786 L312.8896,68.5253786 L312.8896,54.3029786 L384.7824,54.3029786 Z M483.5552,54.3029786 L483.5552,68.5253786 L406.7168,68.5253786 L411.6624,54.3029786 L483.5552,54.3029786 Z M99.55552,27.1514586 L99.55552,41.3736986 L0,41.3736986 L0,27.1514586 L99.55552,27.1514586 Z M265.52512,27.1514586 C268.099627,31.5955505 270.026276,36.3845354 271.24672,41.3733786 L271.24672,41.3733786 L113.77792,41.3733786 L113.77792,27.1514586 Z M512,27.1509786 L512,41.3733786 L416.1584,41.3733786 L421.104,27.1509786 L512,27.1509786 Z M375.3408,27.1509786 L380.2864,41.3733786 L284.4448,41.3733786 L284.4448,27.1509786 L375.3408,27.1509786 Z M99.55552,9.85716419e-05 L99.55552,14.2223386 L0,14.2223386 L0,9.85716419e-05 L99.55552,9.85716419e-05 Z M218.50496,4.91529226e-05 C232.066886,-0.0182214039 245.141087,5.05759937 255.13792,14.2221786 L255.13792,14.2221786 L113.77792,14.2221786 L113.77792,4.91529226e-05 Z M512,0.000578571642 L512,14.2229786 L425.6,14.2229786 L430.5456,0.000578571642 L512,0.000578571642 Z M365.8992,0.000578571642 L370.8448,14.2229786 L284.4448,14.2229786 L284.4448,0.000578571642 L365.8992,0.000578571642 Z" fill="#000000"></path>
    </g>
</svg>

<svg xmlns="http://www.w3.org/2000/svg" viewBox="0 0 512 204.283">
  <path d="M99.556 190.06v14.223H0V190.06zm155.582 0a53.908 53.908 0 0 1-36.633 14.222l-104.727-.14V190.06zm148.028 0-4.966 14.222-4.922-14.222zm-47.61 0v14.223h-71.111V190.06zm156.444 0v14.223h-71.111V190.06zM271.247 162.91a53.94 53.94 0 0 1-5.722 14.222H113.778V162.91zm141.45 0-4.991 14.223h-18.967l-4.992-14.223zm-57.141 0v14.222h-71.111V162.91zm156.444 0v14.222h-71.111V162.91zm-412.444 0v14.222H0V162.91zM71.11 135.757v14.223H28.444v-14.223zm113.778 0v14.223h-42.667v-14.223zm86.017 0a54.318 54.318 0 0 1 1.902 14.223H224.97v-14.223zm151.324 0-4.993 14.223h-38.029l-4.994-14.223zm-66.674 0v14.223h-42.667v-14.223zm128 0v14.223h-42.667v-14.223zM71.11 108.606v14.222H28.444v-14.222zm284.445 0v14.222h-42.667v-14.222zm128 0v14.222h-42.667v-14.222zm-229.91 0a54.52 54.52 0 0 1 11.863 14.221H142.222v-14.222zm178.116 0-4.992 14.222h-57.095l-4.992-14.223zm-37.538-27.151 3.998 11.496 3.997-11.496h81.336v14.222H440.89V82.61l-4.59 13.068h-76.156l-4.589-13.07v13.07H312.89V81.455zm-252.002 0H265.51a54.524 54.524 0 0 1-11.864 14.222H142.222zm-71.111 0v14.222H28.444V81.454zm0-27.152v14.222H28.444V54.303zm113.778 0v14.222h-42.667V54.303zm87.92 0a54.3 54.3 0 0 1-1.903 14.222H224.97V54.303zm111.973 0 4.946 14.222H312.89V54.303zm98.773 0v14.222h-76.838l4.945-14.222zm-384-27.152v14.223H0V27.15zm165.97 0a53.943 53.943 0 0 1 5.722 14.222h-157.47V27.151zm246.475 0v14.222h-95.842l4.946-14.222zm-136.66 0 4.946 14.222h-95.841V27.151zM99.557.001v14.221H0V0zM218.505 0a54.102 54.102 0 0 1 36.633 14.222h-141.36V0zM512 0v14.223h-86.4L430.546.001zM365.9 0l4.945 14.223h-86.4V.001z"/>
</svg>
